src/lib/packages/icons/src/assets/filled/bezier.svg

<svg width="24" height="24" viewBox="0 0 24 24" fill="none" xmlns="http://www.w3.org/2000/svg">
<path d="M18.649 7.75H16.795C18.595 9.15 19.629 11.485 19.73 14.517C20.855 14.603 21.5 15.31 21.5 16.5V17.5C21.5 18.771 20.771 19.5 19.5 19.5H18.5C17.229 19.5 16.5 18.771 16.5 17.5V16.5C16.5 15.32 17.134 14.616 18.24 14.519C18.16 12.374 17.493 9.20199 14.421 8.12799C14.21 9.00399 13.541 9.5 12.499 9.5H11.499C10.458 9.5 9.78803 9.00399 9.57703 8.12799C6.50503 9.20199 5.838 12.374 5.758 14.519C6.864 14.615 7.49799 15.32 7.49799 16.5V17.5C7.49799 18.771 6.76899 19.5 5.49799 19.5H4.49799C3.22699 19.5 2.49799 18.771 2.49799 17.5V16.5C2.49799 15.31 3.14301 14.604 4.26801 14.517C4.36901 11.485 5.403 9.15 7.203 7.75H5.349C5.052 8.482 4.33499 9 3.49799 9C2.39499 9 1.49799 8.103 1.49799 7C1.49799 5.897 2.39499 5 3.49799 5C4.33499 5 5.052 5.518 5.349 6.25H9.51703C9.61003 5.138 10.315 4.5 11.498 4.5H12.498C13.681 4.5 14.386 5.138 14.479 6.25H18.647C18.944 5.518 19.661 5 20.498 5C21.601 5 22.498 5.897 22.498 7C22.498 8.103 21.601 9 20.498 9C19.663 9 18.946 8.482 18.649 7.75Z" fill="currentColor"/>
</svg>

<svg xmlns="http://www.w3.org/2000/svg" width="24" height="24" fill="none"><path fill="currentColor" d="M18.649 7.75h-1.854c1.8 1.4 2.834 3.735 2.935 6.767 1.125.086 1.77.793 1.77 1.983v1c0 1.271-.729 2-2 2h-1c-1.271 0-2-.729-2-2v-1c0-1.18.634-1.884 1.74-1.981-.08-2.145-.747-5.317-3.819-6.391-.211.876-.88 1.372-1.922 1.372h-1c-1.041 0-1.711-.496-1.922-1.372-3.072 1.074-3.739 4.246-3.819 6.391 1.106.096 1.74.801 1.74 1.981v1c0 1.271-.729 2-2 2h-1c-1.271 0-2-.729-2-2v-1c0-1.19.645-1.896 1.77-1.983.101-3.032 1.135-5.367 2.935-6.767H5.349A2 2 0 0 1 3.498 9c-1.103 0-2-.897-2-2s.897-2 2-2a2 2 0 0 1 1.851 1.25h4.168c.093-1.112.798-1.75 1.981-1.75h1c1.183 0 1.888.638 1.981 1.75h4.168A2 2 0 0 1 20.498 5c1.103 0 2 .897 2 2s-.897 2-2 2a2 2 0 0 1-1.849-1.25Z"/></svg>
